icons/lines/pause.svg

<svg xmlns="http://www.w3.org/2000/svg" width="24" height="24" viewBox="0 0 24 24" fill="none" stroke="currentColor" stroke-width="2" stroke-linecap="round" stroke-linejoin="round" >
  <path d="M10.65 19.11V4.89C10.65 3.54 10.08 3 8.64 3H5.01C3.57 3 3 3.54 3 4.89V19.11C3 20.46 3.57 21 5.01 21H8.64C10.08 21 10.65 20.46 10.65 19.11Z"/>
  <path d="M21.0001 19.11V4.89C21.0001 3.54 20.4301 3 18.9901 3H15.3601C13.9301 3 13.3501 3.54 13.3501 4.89V19.11C13.3501 20.46 13.9201 21 15.3601 21H18.9901C20.4301 21 21.0001 20.46 21.0001 19.11Z"/>
  </svg>

<svg xmlns="http://www.w3.org/2000/svg" width="24" height="24" viewBox="0 0 24 24" fill="none" stroke="currentColor" stroke-width="2" stroke-linecap="round" stroke-linejoin="round">
  <path d="M10.65 4.89c0-1.35-.57-1.89-2.01-1.89H5.01C3.57 3 3 3.54 3 4.89v14.22C3 20.46 3.57 21 5.01 21h3.63c1.44 0 2.01-.54 2.01-1.89z" />
  <path d="M21 4.89C21 3.54 20.43 3 18.99 3h-3.63c-1.43 0-2.01.54-2.01 1.89v14.22c0 1.35.57 1.89 2.01 1.89h3.63c1.44 0 2.01-.54 2.01-1.89z" />
</svg>
